!!!!SEGMENT: pl-kk--kk-i-277--001-004_anonim--rorate-caeli-alleluia.krn
!!!cenid: 16xx:1076
!!!COM: Anonim
!!!COM-rismID: pe30004985
!!!CDT:
!!!CNT:
!!!OPR: Rorate caeli
!!!OTL: Alleluia
!!!OMV: 004
!!!PDT:
!!!AGN: Sacred
!!!YEC: Copyright 2022 Narodowy Instytut Fryderyka Chopina (https://polishscores.org)
!!!YEM: License CC-BY-4.0 (https://creativecommons.org/licenses/by/4.0)
!!!SMS-siglum: PL-Kk
!!!SMS-shelfmark: Kk.I.277
!!!SMS-shelfwork: 001-004 M
!!!SMS-variant:
!!!SMS-altvar:
!!!NIFC-rismSourceID: 1001147171
!!!NIFC-rismChildID: 1001147186
!!!NIFC-islandoraID: pl-kk:4889
!!!URL-pdf-islandora: https://repozytorium.nifc.pl/islandora/object/pl-kk%3A4889/datastream/PDF/view
!!!URL-scan: https://polish.musicsources.pl/pl/lokalizacje/galeria/rekopisy/5895 @EN{Scan on Polish Music Sources Website} @PL{Skany w portalu Dziedzictwo Muzyki Polskiej w otwartym dostępie}
!!!IIIF:
!!!ONB-nifc:
!!!AIN: 1 tenor
!!!key:
**kern	**text	**text
*staff1	*	*
*Itenor	*	*
*I"[Tenore]	*	*
*I'[T]	*	*
*clefC4	*	*
*k[]	*	*
*C:	*	*
*M2/1	*	*
*met(C)	*	*
=1-	=1-	=1-
*lig	*	*
!LO:TX:t=P:problem=inicjał A przed kluczem	!	!
1C	Al-	.
1D	.	.
*Xlig	*	*
=2-	=2-	=2-
*lig	*	*
1D	-le-	.
1F	.	.
*Xlig	*	*
=3-	=3-	=3-
*lig	*	*
1F	-lu-	.
1E	.	.
*Xlig	*	*
=4-	=4-	=4-
1D	.	.
1D	-ia	.
=5-	=5-	=5-
*lig	*	*
1E	.	.
1F	.	.
*Xlig	*	*
=6-	=6-	=6-
*lig	*	*
1G	.	.
1F	.	.
*Xlig	*	*
=7-	=7-	=7-
*lig	*	*
1G	.	.
1E	.	.
*Xlig	*	*
=8-	=8-	=8-
1F	.	.
0D	.	.
=9-	=9-	=9-
.	.	.
0C	.	.
=10-	=10-	=10-
.	.	.
1D	.	.
=11-	=11-	=11-
*lig	*	*
1F	.	.
1E	.	.
*Xlig	*	*
=12-	=12-	=12-
*lig	*	*
1F	.	.
1D	.	.
*Xlig	*	*
=13-	=13-	=13-
*lig	*	*
1F	.	.
1G	.	.
*Xlig	*	*
=14-	=14-	=14-
1A	.	.
!LO:LB:g=original	!	!
*lig	*	*
1G	.	.
=15-	=15-	=15-
1F	.	.
*Xlig	*	*
0E	.	.
=16-	=16-	=16-
.	.	.
1G	.	.
=17-	=17-	=17-
1A	.	.
*lig	*	*
1G	.	.
=18-	=18-	=18-
1E	.	.
*Xlig	*	*
*lig	*	*
1F	.	.
=19-	=19-	=19-
1D	.	.
*Xlig	*	*
1C	.	.
=20-	=20-	=20-
1D	.	.
*lig	*	*
1E	.	.
=21-	=21-	=21-
1F	.	.
*Xlig	*	*
1E	.	.
=22-	=22-	=22-
0E;;l	.	.
=23||	=23||	=23||
*M2/1	*	*
*met(C)	*	*
!LO:TX:a:t=P:problem=inicjał P przed oznaczeniem metrycznym	!	!
1F	Pro-	Poſt
*lig	*	*
1F	-phe-	par-
=24-	=24-	=24-
1D	.	.
*Xlig	*	*
*lig	*	*
1F	-tae	-tum
=25-	=25-	=25-
1D	.	.
*Xlig	*	*
1C,<	ſan-	Vir-
=26-	=26-	=26-
*lig	*	*
1D	-cti	-go
1E	.	.
!LO:LB:g=original	!	!
*Xlig	*	*
=27-	=27-	=27-
1E	prae-	in-
1C	-di-	-ui-
=28-	=28-	=28-
1E	-ca-	-o-
*lig	*	*
1G	-ue-	-la-
=29-	=29-	=29-
1A	.	.
*Xlig	*	*
1F	.	.
=30-	=30-	=30-
*lig	*	*
1G	.	.
1E	.	.
*Xlig	*	*
=31-	=31-	=31-
*lig	*	*
1F	.	.
1D	.	.
*Xlig	*	*
=32-	=32-	=32-
*lig	*	*
1F	.	.
1D	.	.
*Xlig	*	*
=33-	=33-	=33-
1C	-runt	-ta
1D	naſ-	per-
=34-	=34-	=34-
(<1D	-ci	-man-
1F)	.	.
=35-	=35-	=35-
1F	ſal-	.
1F	-va-	.
=36-	=36-	=36-
*lig	*	*
1E	-to-	-ſi-
1F	.	.
*Xlig	*	*
=37-	=37-	=37-
*lig	*	*
1G	.	.
1F	.	.
*Xlig	*	*
=38-	=38-	=38-
1E	-rem	-ſti
1E	de	De-
=39-	=39-	=39-
*lig	*	*
1G	Vir-	-i
1A	.	.
!LO:LB:g=original	!	!
*Xlig	*	*
=40-	=40-	=40-
1A	-gi-	ge-
1c	-ne	.
=41-	=41-	=41-
*lig	*	*
1A	.	.
1G	.	.
*Xlig	*	*
=42-	=42-	=42-
*lig	*	*
1F	.	.
1G	.	.
*Xlig	*	*
=43-	=43-	=43-
*lig	*	*
1A	.	.
1G	.	.
*Xlig	*	*
=44-	=44-	=44-
*lig	*	*
1F	.	.
1E	.	.
*Xlig	*	*
=45-	=45-	=45-
1D	.	-ni-
0E	.	-trix
=46-	=46-	=46-
.	.	.
*lig	*	*
1G	.	.
=47-	=47-	=47-
1A	.	.
*Xlig	*	*
1c	.	.
=48-	=48-	=48-
*lig	*	*
1A	.	.
1G	.	.
*Xlig	*	*
=49-	=49-	=49-
*lig	*	*
1F	.	.
1G	.	.
*Xlig	*	*
=50-	=50-	=50-
*lig	*	*
1A	.	.
1G	.	.
*Xlig	*	*
=51-	=51-	=51-
1F	.	.
1E	.	.
=52-	=52-	=52-
*lig	*	*
1D	.	.
1E	.	.
*Xlig	*	*
=53-	=53-	=53-
*lig	*	*
1F	.	.
1E	.	.
!LO:LB:g=original	!	!
*Xlig	*	*
=54-	=54-	=54-
*lig	*	*
1F	.	in-
1D	.	.
*Xlig	*	*
=55-	=55-	=55-
*lig	*	*
1F	.	-ter-
1G	.	.
*Xlig	*	*
=56-	=56-	=56-
1A	.	.
*lig	*	*
1G	.	.
=57-	=57-	=57-
1F	.	.
*Xlig	*	*
1E	.	-ce-
=58-	=58-	=58-
1E	ma-	-de
*lig	*	*
1F	.	.
=59-	=59-	=59-
1D	.	.
*Xlig	*	*
1C	-tre	pro
=60-	=60-	=60-
1D	.	.
*lig	*	*
1F	ſan-	.
=61-	=61-	=61-
1D	.	.
*Xlig	*	*
1F	.	no-
=62-	=62-	=62-
*lig	*	*
1F	-cta	.
1E	.	.
*Xlig	*	*
=63-	=63-	=63-
1C	Ma-	.
0D	-ri-	.
=64-	=64-	=64-
.	.	.
0F	.	.
=65-	=65-	=65-
.	.	.
1E	.	.
=66-	=66-	=66-
0D	.	.
=67-	=67-	=67-
0E;;l	-a	-bis
=-	=-	=-
*-	*-	*-
!!!system-decoration: [(s1)]
!!!RDF**kern: l = terminal long
!!!RDF**kern: > = above
!!!RDF**kern: < = below
!!!EED: Antoni Szymański
!!!EEV: 2021-03-28
!!!ENC: Tomasz Grochalski
!!!END: 2021-03-14
